!!!ONB: MCCC : IFS0587_01 : Extracted Monophonic Melody
!!!COM: Schubert, Franz
!!!OPR: Piano Sonata in A minor, Grande Sonate
!!!OMV: 1
!!!SCT: D.784 (published as Op.posth.143)
!!!ODT: 1823///
**kern
*staff1
=1
*clefG2
*k[b-]
*F:
*M4/4
2a
2ee
=2
2dd#
4ee
8.cc
16b
=3
2a
2e
=4
2c
4A
4r
=5
2A
2f
=6
2g
4f
8.A
16B
=7
2c
2e
=8
2c
4A
4r
=9
1r
=10
2r
2A[
=11
4A]
4d
4e
4f
=12
2e
4A
4g
=13
2f
4A
4f
=14
4e
4e
4a
4a[
=15
4a]
4dd
4ee
4ff
=16
4ee
4ee
4ee
4ee[
=17
4ee]
4gg
4aa
4bb
=18
2bb
2bb
=19
2gg
4ee
4r
=20
2b
2b
=21
2g
4e
4r
=22
2g
4e
4r
=23
2f
4d
4r
=24
2e
4c
4r
=25
2d
4B
4r
=26
2a
2ee
=27
2dd#
4ee
8.cc
16b
=28
8.a
16g
8.f
16e
8.f
16e
8.d
16c#
=29
8.d
16e
8.f
16a-
8.a
16b
4a
=30
2A
2a
=31
2b-
4a
8.ff
16ee
=32
8.dd
16cc
8.b-
16a
8.b-
16a
8.g
16f#
=33
8.g
16a
8.b-
16cc#
8.dd
16ee
4dd
=34
1r
=35
2r
2dd[
=36
4dd]
4gg
4aa
4bb-
=37
2aa
4dd
4ccc
=38
2bb-
4dd
4bb-
=39
4aa[
4aa]
2dd[
=40
4dd]
4gg
4aa
4bb-
=41
4aa
4aa
4aa
4aa[
=42
4aa]
4ccc
4ddd
4eee
=43
2eee
2eee
=44
2ccc
4aa
4r
=45
2ee
2ee
=46
2cc
4a
4r
=47
2b-
4g
4r
=48
2b-
4g
4r
=49
2b-
4g
4r
=50
2b-
4g
4r
=51
16B
16b
16B
16b
16B
16b
16B
16b
16B
16b
16B
16b
16B
16b
16B
16b
=52
16A-
16a-
16A-
16a-
16A-
16a-
16A-
16a-
16A-
16a-
16A-
16a-
16A-
16a-
16A-
16a-
=53
4bb
4aa-
4bb
4eee
=54
4bb
4aa-
4ee
4b
=55
1a-
=56
1b
=57
16B
16b
16B
16b
16A-
16a-
16A-
16a-
16B
16b
16B
16b
16e
16ee
16e
16ee
=58
16a-
16aa-
16a-
16aa-
16b
16bb
16b
16bb
16ee
16eee
16ee
16eee
16b
16bb
16b
16bb
=59
1a-
=60
1b
=61
4e
4r
4e
4r
=62
4e
4a-
4f#
4a-
=63
4c#
4r
4c#
4r
=64
4c#
4f#
4e
4f#
=65
4B
4r
4e
4r
=66
4e
4a-
4f#
4g#
=67
4a
4r
4a
4r
=68
4cc#
4r
4cc#
4r
=69
4ee
4r
4ee
4r
=70
4ff#
4ee-
4b
4a
=71
4a-
4r
4a-
4r
=72
4ff#
4ee-
4b
4a
=73
4a-
4r
4a-
4r
=74
4e
4a-
4f#
4a-
=75
4b
4r
4b-
4r
=76
4eee
4r
4eee
4r
=77
4a
4r
4a-
4r
=78
4eee
4r
4eee
4r
=79
2f#
4f#
4r
=80
4ff#
4gg#
4aa
4gg#
=81
4bb
4r
4bb
4r
=82
4a-
4r
4a-
4r
=83
2f#
4f#
4r
=84
4ff#
4gg#
4aa
4gg#
=85
4bb
4r
4bb
4r
=86
2e
4e
4r
=87
4B
4a-
4f#
4a-
=88
4b
4r
4a
4r
=89
4b
4r
4a
4r
=90
2ee
4ee
4r
=91
4B
4a-
4f#
4a-
=92
4cc#
4r
4a
4r
=93
4b
4r
4a
4r
=94
4a
4r
4g
4r
=95
4g
4r
4f
4r
=96
4f
4r
4e
4r
=97
4e
4r
4d
4r
=98
4d
4r
4c
4r
=99
1r
=100
1r
=101
4B
4r
4B
4r
=102
1r
=103
1r
=104
2a
2ee
=105
2dd#
4ee
8.cc
16b
=106
2a
2e
=107
2c
4A
4r
=108
2A
2f
=109
2g
4f
8.A
16B
=110
2c
2e
=111
2c
4A
4r
=112
1r
=113
2r
2A[
=114
4A]
4d
4e
4f
=115
2e
4A
4g
=116
2f
4A
4f
=117
4e
4e
4a
4a[
=118
4a]
4dd
4ee
4ff
=119
4ee
4ee
4ee
4ee[
=120
4ee]
4gg
4aa
4bb
=121
2bb
2bb
=122
2gg
4ee
4r
=123
2b
2b
=124
2g
4e
4r
=125
2g
4e
4r
=126
2f
4d
4r
=127
2e
4c
4r
=128
2d
4B
4r
=129
2a
2ee
=130
2dd#
4ee
8.cc
16b
=131
8.a
16g
8.f
16e
8.f
16e
8.d
16c#
=132
8.d
16e
8.f
16a-
8.a
16b
4a
=133
2A
2a
=134
2b-
4a
8.ff
16ee
=135
8.dd
16cc
8.b-
16a
8.b-
16a
8.g
16f#
=136
8.g
16a
8.b-
16cc#
8.dd
16ee
4dd
=137
1r
=138
2r
2dd[
=139
4dd]
4gg
4aa
4bb-
=140
2aa
4dd
4ccc
=141
2bb-
4dd
4bb-
=142
4aa[
4aa]
2dd[
=143
4dd]
4gg
4aa
4bb-
=144
4aa
4aa
4aa
4aa[
=145
4aa]
4ccc
4ddd
4eee
=146
2eee
2eee
=147
2ccc
4aa
4r
=148
2ee
2ee
=149
2cc
4a
4r
=150
2b-
4g
4r
=151
2b-
4g
4r
=152
2b-
4g
4r
=153
2b-
4g
4r
=154
16B
16b
16B
16b
16B
16b
16B
16b
16B
16b
16B
16b
16B
16b
16B
16b
=155
16A-
16a-
16A-
16a-
16A-
16a-
16A-
16a-
16A-
16a-
16A-
16a-
16A-
16a-
16A-
16a-
=156
4bb
4aa-
4bb
4eee
=157
4bb
4aa-
4ee
4b
=158
1a-
=159
1b
=160
16B
16b
16B
16b
16A-
16a-
16A-
16a-
16B
16b
16B
16b
16e
16ee
16e
16ee
=161
16a-
16aa-
16a-
16aa-
16b
16bb
16b
16bb
16ee
16eee
16ee
16eee
16b
16bb
16b
16bb
=162
1a-
=163
1b
=164
4e
4r
4e
4r
=165
4e
4a-
4f#
4a-
=166
4c#
4r
4c#
4r
=167
4c#
4f#
4e
4f#
=168
4B
4r
4e
4r
=169
4e
4a-
4f#
4g#
=170
4a
4r
4a
4r
=171
4cc#
4r
4cc#
4r
=172
4ee
4r
4ee
4r
=173
4ff#
4ee-
4b
4a
=174
4a-
4r
4a-
4r
=175
4ff#
4ee-
4b
4a
=176
4a-
4r
4a-
4r
=177
4e
4a-
4f#
4a-
=178
4b
4r
4b-
4r
=179
4eee
4r
4eee
4r
=180
4a
4r
4a-
4r
=181
4eee
4r
4eee
4r
=182
2f#
4f#
4r
=183
4ff#
4gg#
4aa
4gg#
=184
4bb
4r
4bb
4r
=185
4a-
4r
4a-
4r
=186
2f#
4f#
4r
=187
4ff#
4gg#
4aa
4gg#
=188
4bb
4r
4bb
4r
=189
2e
4e
4r
=190
4B
4a-
4f#
4a-
=191
4b
4r
4a
4r
=192
4b
4r
4a
4r
=193
2ee
4ee
4r
=194
4B
4a-
4f#
4a-
=195
4cc#
4r
4a
4r
=196
4b
4r
4a
4r
=197
4a
4r
4g
4r
=198
4g
4r
4f
4r
=199
4f
4r
4e
4r
=200
4e
4r
4d
4r
=201
4d
4r
4c
4r
=202
1r
=203
1r
=204
4B
4r
4B
4r
=205
1r
=206
1r
=207
2c
2a
=208
2g#
2a
=209
2b-
2a
=210
2dd
2cc
=211
2gg
2ff
=212
2bb-
2aa
=213
2ddd
4aa
4r
=214
2eee
4aa
4r
=215
2fff
4aa
4r
=216
2eee
4aa
4r
=217
2ddd
4aa
4r
=218
2eee
4aa
4r
=219
2fff
4aa
4r
=220
2eee
4aa
4r
=221
2fff
4ccc
4r
=222
2ggg
4ccc
4r
=223
2aaa
4ccc
4r
=224
2ggg
4ccc
4r
=225
8.aaa
16fff
8.fff
16ccc
8.ccc
16aa
8aa
8ff
=226
8.aaa
16fff
8.fff
16ccc
8.ccc
16aa
8aa
8ff
=227
8.aaa
16aaa
8.aaa
16aaa
8.aaa
16aaa
8aaa
8aa
=228
8.aa
16aa
8.aa
16aa
8.aa
16aa
8aa
8aa
=229
8.aa
16aa
8.aa
16aa
8.aa
16aa
8aa
8aa
=230
8.aa
16bb-
8.aa
16gg
8.ff
16gg
8.ff
16dd
=231
8.cc
16dd
8.dd
16cc
8.cc
16dd
8dd
8cc
=232
8.bb-
16ccc
8.bb-
16aa
8.gg
16aa
8.gg
16ee-
=233
8.dd
16ee-
8.ee-
16dd
8.dd
16ee-
8ee-
8dd
=234
8.gg
16aa-
8aa-
8gg
8.cc
16cc#
8cc#
8cc
=235
8.ff
16gg
8gg
8ff
8.b-
16cc
8cc
8b-
=236
8.dd
16ee
8.ee
16ff
8.ff
16gg
8.gg
16aa-
=237
8.aa-
16aa-
8.aa-
16gg
8.gg
16gg
8.gg
16ee
=238
8.ee
16gg
8gg
8ccc
4aa-
4r
=239
8.ee
16gg
8gg
8ccc
4aa-
4r
=240
8.ccc
16cc
8.cc
16cc
8.ccc
16cc
8.cc
16cc
=241
8.cc
16dd
8.dd
16cc
8.cc
16cc
8.cc
16cc
=242
8.cc
16ff
8.ff
16cc
8.cc
16cc
8.cc
16cc
=243
8.cc
16dd
8.dd
16cc
8.cc
16bb-
8.bb-
16ee
=244
8.fff
16ccc
8.ccc
16ccc
8.bb
16ccc
8.ccc
16ccc
=245
8.aa
16ccc
8.aaa
16ggg
8.ggg
16aaa
8.aaa
16fff
=246
8.eee
16ddd
8.ddd
16ddd
8.ccc#
16ddd
8.ddd
16ddd
=247
8.bb-
16ddd
8.ggg
16fff
8.fff
16ggg
8.ggg
16eee
=248
8.ccc
16cc
8.cc
16cc
8.b
16cc
8.cc
16cc
=249
8.a-
16cc
8.aa-
16gg
8.gg
16aa-
8.aa-
16ff
=250
8.gg
16ff
8.ff
16ff
8.ee
16ff
8.ff
16ff
=251
8.cc#
16ff
8.bb-
16aa-
8.aa-
16bb-
8.bb-
16gg
=252
8.ee-
16ccc
8.ccc
16bb-
8.bb-
16aa-
8.aa-
16ff#
=253
8.ff#
16ff
8.ff
16ff
8.ee
16ee-
8.ee-
16ee-
=254
8.cc#
16ccc#
8.ccc#
16ccc
8.ccc
16bb-
8.bb-
16aa-
=255
8.aa-
16gg
8.gg
16gg
8.ff#
16ff
8.ff
16ff
=256
8.ee
16eee
8.eee
16eee
8.ggg
16fff
8.fff
16fff
=257
8.fff
16eee
8.eee
16eee
8.eee
16bb
8.bb
16bb
=258
8.ddd
16ccc
8.ccc
16ee
8.gg
16ff
8.ff
16ff
=259
8.ff
16ee
8.ee
16ee
8.ee
16b
8.b
16b
=260
8.dd
16cc
8.cc
16cc
8.cc
16ee
8.ee
16ee
=261
8.ee
16a-
8.a-
16a-
8.a-
16ee
8.ee
16ee
=262
8.ee
16a
8.a
16a
8.a
16ee
8.ee
16ee
=263
8.ee
16b
8.b
16b
8.b
16ff
8.ff
16ff
=264
2ee
2r
=265
2r
8r
16r
16f
8.f
16f
=266
2e
2r
=267
1r
=268
1r
=269
2a
2ee
=270
2dd#
4ee
8.cc
16b
=271
2a
2e
=272
2c
4A
4r
=273
2A
2f
=274
2g
4f
8.A
16B
=275
2c
2e
=276
2c
4A
4r
=277
2a
4A
4r
=278
2a
4A
4r
=279
2a
4A
4r
=280
2a
4A
4r
=281
2a
4A
4r
=282
2a
4A
4r
=283
2aa
4a
4r
=284
2aa
4a
4r
=285
2gg
4g
4r
=286
2ff#
2bb
=287
2gg
4ee
4r
=288
2f#
2b
=289
2g
4e
4r
=290
2g
4e
4r
=291
2f
4d
4r
=292
2e
4c
4r
=293
2d
4B
4r
=294
2a
2ee
=295
2dd#
4ee
8.E
16G#
=296
8.A
16B
8.c
16d
8.c
16d
8.e
16f
=297
8.e
16d
8.c
16B
8.A
16G#
4A
=298
2a
2aa
=299
2bb-
4aa
8.A
16c#
=300
8.d
16e
8.f
16g
8.f
16g
8.a
16b-
=301
8.a
16g
8.f
16e
8.d
16c#
4d
=302
1r
=303
2r
2dd[
=304
4dd]
4gg
4aa
4bb-
=305
2aa
4dd
4ccc
=306
2bb-
4dd
4bb-
=307
4aa[
4aa]
2dd[
=308
4dd]
4gg
4bb-
4ddd
=309
2eee-
4gg
4eee-
=310
4ddd
4ddd
4ddd
4ddd[
=311
4ddd]
4fff
4ggg
4aaa
=312
2aaa
2aaa
=313
2fff
4ddd
4r
=314
2aa
2aa
=315
2ff
4dd
4r
=316
2ee-
4cc
4r
=317
2ee-
4cc
4r
=318
2ee-
4cc
4r
=319
2ee-
4cc
4r
=320
2ee
4cc#
4r
=321
2ee
4b
4r
=322
8cc#
32r
16.cc#
16r
64r
32.cc#
8r
4cc#
4r
=323
4a
4cc#
4b
4cc#
=324
8f#
32r
16.f#
16r
64r
32.f#
8r
4f#
4r
=325
4f#
4b
4a
4b
=326
8e
32r
16.e
16r
64r
32.e
8r
4a
4r
=327
4a
4cc#
4b
4cc#
=328
8dd
32r
16.dd
16r
64r
32.dd
8r
4dd
4r
=329
8ff#
32r
16.ff#
16r
64r
32.ff#
8r
4ff#
4r
=330
8aa
32r
16.aa
16r
64r
32.aa
8r
4aa
4r
=331
4bb
4aa-
4ee
4dd
=332
8cc#
32r
16.cc#
16r
64r
32.cc#
8r
4cc#
4r
=333
4bb
4aa-
4ee
4dd
=334
8cc#
32r
16.cc#
16r
64r
32.cc#
8r
4cc#
4r
=335
4a
4cc#
4b
4cc#
=336
8ee
32r
16.ee
16r
64r
32.ee
8r
4ee-
4r
=337
8aaa
32r
16.aaa
16r
64r
32.aaa
8r
4aaa
4r
=338
8dd
32r
16.dd
16r
64r
32.dd
8r
4cc#
4r
=339
8aaa
32r
16.aaa
16r
64r
32.aaa
8r
4aaa
4r
=340
6b
6b
6b
4b
4r
=341
4bb
4ccc#
4ddd
4ccc#
=342
8eee
32r
16.eee
16r
64r
32.eee
8r
4eee
4r
=343
8cc#
32r
16.cc#
16r
64r
32.cc#
8r
4cc#
4r
=344
6b
6b
6b
4b
4r
=345
4bb
4ccc#
4ddd
4ccc#
=346
8eee
32r
16.eee
16r
64r
32.eee
8r
4eee
4r
=347
6a
6a
6a
4a
4r
=348
4e
4cc#
4b
4cc#
=349
4ee
4r
4dd
4r
=350
4ee
4r
4dd
4r
=351
6aa
6aa
6aa
4aa
4r
=352
4e
4cc#
4b
4cc#
=353
4ff#
4r
4dd
4r
=354
4ee
4r
4dd
4r
=355
4dd
4r
4cc
4r
=356
4cc
4r
4b-
4r
=357
4b-
4r
4a
4r
=358
2e-
4e
4r
=359
1r
=360
4a
4r
4a-
4r
=361
2e-
4e
4r
=362
1r
=363
1f#[
=364
4f#]
4r
2r
=365
1f#[
=366
4f#]
4r
2r
=367
2ee-
4cc
4r
=368
2ee-
4cc
4r
=369
4ee-
4cc
4ee-
4cc
=370
4ee-
4cc
4ee-
4cc
=371
16e
16ee
16e
16ee
16e
16ee
16e
16ee
16e
16ee
16e
16ee
16e
16ee
16e
16ee
=372
16c#
16cc#
16c#
16cc#
16c#
16cc#
16c#
16cc#
16c#
16cc#
16c#
16cc#
16c#
16cc#
16c#
16cc#
=373
4eee
4ccc#
4eee
4aaa
=374
4eee
4ccc#
4aa
4ee
=375
1cc#
=376
1ee
=377
16e
16ee
16e
16ee
16c#
16cc#
16c#
16cc#
16e
16ee
16e
16ee
16a
16aa
16a
16aa
=378
16cc#
16ccc#
16cc#
16ccc#
16ee
16eee
16ee
16eee
16aa
16aaa
16aa
16aaa
16ee
16eee
16ee
16eee
=379
1cc#
=380
1ee
=381
4c#
4r
4A
4r
=382
4eee
4r
4aa-
4r
=383
4c#
4r
4A
4r
=384
4eee
4r
4aa-
4r
=385
4c#
4r
4A
4r
=386
4eee
4r
4aa-
4r
=387
4eee
4r
4aa-
4r
=388
4eee
4r
4aa-
4r
=389
1ccc#[
=390
1ccc#]
=391
1aa[
=392
1aa]
=393
4c#
4r
4c#
4r
=394
1c#
==
*-
